report_00007_2020-12-11T15:55:29.892Z/speed-index/comparison/line/5_vs_6.svg

<svg width="640" height="500" xmlns="http://www.w3.org/2000/svg" xmlns:xlink="http://www.w3.org/1999/xlink"><path fill="#fff" d="M0 0h640v500H0z"/><defs><path id="d" stroke-width=".222" stroke="currentColor" d="M-1-1h2v2h-2z"/><path id="b" stroke-width=".222" stroke="currentColor" d="M0-1.33l-1.33 2h2.66z"/><path id="f" stroke-width=".222" stroke="currentColor" d="M0 1.33L1.265.411.782-1.067l-1.564-.009-.483 1.487z"/><use xlink:href="#b" id="c" stroke="currentColor" transform="rotate(180)"/><use xlink:href="#d" id="e" stroke="currentColor" transform="rotate(45)"/><circle id="a" stroke-width=".222" stroke="currentColor" cx="0" cy="0" r="1"/></defs><g fill="none" color="#000" stroke="currentColor"><path stroke="#000" d="M62.2 357.9h9m543.8 0h-9"/><text transform="translate(53.9 361.8)" stroke="none" fill="#000" font-family="Arial" font-size="12" text-anchor="end"><tspan>1600</tspan></text></g><g fill="none" color="#000" stroke="currentColor"><path stroke="#000" d="M62.2 297.9h9m543.8 0h-9"/><text transform="translate(53.9 301.8)" stroke="none" fill="#000" font-family="Arial" font-size="12" text-anchor="end"><tspan>1800</tspan></text></g><g fill="none" color="#000" stroke="currentColor"><path stroke="#000" d="M62.2 237.9h9m543.8 0h-9"/><text transform="translate(53.9 241.8)" stroke="none" fill="#000" font-family="Arial" font-size="12" text-anchor="end"><tspan>2000</tspan></text></g><g fill="none" color="#000" stroke="currentColor"><path stroke="#000" d="M62.2 177.9h9m543.8 0h-9"/><text transform="translate(53.9 181.8)" stroke="none" fill="#000" font-family="Arial" font-size="12" text-anchor="end"><tspan>2200</tspan></text></g><g fill="none" color="#000" stroke="currentColor"><path stroke="#000" d="M62.2 117.9h9m543.8 0h-9"/><text transform="translate(53.9 121.8)" stroke="none" fill="#000" font-family="Arial" font-size="12" text-anchor="end"><tspan>2400</tspan></text></g><g fill="none" color="#000" stroke="currentColor"><path stroke="#000" d="M62.2 57.9h9m543.8 0h-9"/><text transform="translate(53.9 61.8)" stroke="none" fill="#000" font-family="Arial" font-size="12" text-anchor="end"><tspan>2600</tspan></text></g><g fill="none" color="#000" stroke="currentColor"><path stroke="#000" d="M62.2 392v-9m0-364.9v9"/><text transform="translate(62.2 413.9)" stroke="none" fill="#000" font-family="Arial" font-size="12" text-anchor="middle"><tspan>0</tspan></text></g><g fill="none" color="#000" stroke="currentColor"><path stroke="#000" d="M118 392v-9m0-364.9v9"/><text transform="translate(118 413.9)" stroke="none" fill="#000" font-family="Arial" font-size="12" text-anchor="middle"><tspan>10</tspan></text></g><g fill="none" color="#000" stroke="currentColor"><path stroke="#000" d="M173.9 392v-9m0-364.9v9"/><text transform="translate(173.9 413.9)" stroke="none" fill="#000" font-family="Arial" font-size="12" text-anchor="middle"><tspan>20</tspan></text></g><g fill="none" color="#000" stroke="currentColor"><path stroke="#000" d="M229.7 392v-9m0-364.9v9"/><text transform="translate(229.7 413.9)" stroke="none" fill="#000" font-family="Arial" font-size="12" text-anchor="middle"><tspan>30</tspan></text></g><g fill="none" color="#000" stroke="currentColor"><path stroke="#000" d="M285.6 392v-9m0-364.9v9"/><text transform="translate(285.6 413.9)" stroke="none" fill="#000" font-family="Arial" font-size="12" text-anchor="middle"><tspan>40</tspan></text></g><g fill="none" color="#000" stroke="currentColor"><path stroke="#000" d="M341.4 392v-9m0-364.9v9"/><text transform="translate(341.4 413.9)" stroke="none" fill="#000" font-family="Arial" font-size="12" text-anchor="middle"><tspan>50</tspan></text></g><g fill="none" color="#000" stroke="currentColor"><path stroke="#000" d="M397.2 392v-9m0-364.9v9"/><text transform="translate(397.2 413.9)" stroke="none" fill="#000" font-family="Arial" font-size="12" text-anchor="middle"><tspan>60</tspan></text></g><g fill="none" color="#000" stroke="currentColor"><path stroke="#000" d="M453.1 392v-9m0-364.9v9"/><text transform="translate(453.1 413.9)" stroke="none" fill="#000" font-family="Arial" font-size="12" text-anchor="middle"><tspan>70</tspan></text></g><g fill="none" color="#000" stroke="currentColor"><path stroke="#000" d="M508.9 392v-9m0-364.9v9"/><text transform="translate(508.9 413.9)" stroke="none" fill="#000" font-family="Arial" font-size="12" text-anchor="middle"><tspan>80</tspan></text></g><g fill="none" color="#000" stroke="currentColor"><path stroke="#000" d="M564.7 392v-9m0-364.9v9"/><text transform="translate(564.7 413.9)" stroke="none" fill="#000" font-family="Arial" font-size="12" text-anchor="middle"><tspan>90</tspan></text></g><path stroke="#000" d="M62.2 18.1V392H615V18.1H62.2z" fill="none" color="#000"/><text transform="translate(437.8 431.9)" stroke="none" fill="#000" font-family="Arial" font-size="12" text-anchor="end" color="#000"><tspan>pages+cached+noexternal</tspan></text><path stroke="#9400D3" d="M446.1 428h42.2M62.2 71.1l5.6 1 5.6-.3L79 33.7l5.5 37.6 5.6-2.2 5.6-.4 5.6 8.4 5.6-37 5.6-1.8 5.5-3.9 5.6 4.2 5.6-2.8 5.6-1.1 5.6 24.9 5.6-24.4 5.5-1.9 5.6.7 5.6 8 5.6-7.7 5.6-1 5.6 34.9 5.5 2.4 5.6-4.3 5.6 4.5 5.6-4 5.6 3.5 5.6-26.8 5.5-10.5 5.6-.3 5.6 36.5 5.6-34.9 5.6 36.3 5.6-9.9 5.6-22 5.5 30.1 5.6 7.5 5.6-17.8 5.6-22.9 5.6 5.2 5.6-8.2 5.5 41.4 5.6-41.7 5.6 32.5 5.6.9 5.6 7.6 5.6-33.1 5.5 24.6 5.6-32.9 5.6 30.1 5.6-25.9 5.6-.3 5.6-10.5 5.5 15.5 5.6 27.1 5.6-1.7 5.6 5.1 5.6-37.2 5.6 3.7 5.5 2.5 5.6 24.4 5.6-27.9 5.6-2 5.6-6.5 5.6 8.2 5.5 2.5 5.6 23.8 5.6-29.3 5.6 2.7 5.6 40.6 5.6-4.2 5.6 3.6 5.5-.4 5.6-48.3 5.6 40.6 5.6-27 5.6 28.2 5.6-39.5 5.5 34 5.6-26.6 5.6 36.4 5.6-38.5 5.6-4.3 5.6 38.6 5.5-.3 5.6-29.3 5.6-2.6 5.6-.3 5.6-5.9 5.6 26.3 5.5-23.4 5.6 34.7 5.6-34.1 5.6 4.5 5.6-3.8 5.6-.8 5.5 38.2 5.6-30 5.6-7.4 5.6 36" fill="none" color="#000"/><text transform="translate(437.8 449.9)" stroke="none" fill="#000" font-family="Arial" font-size="12" text-anchor="end" color="#000"><tspan>pages+cached+noexternal+nofonts</tspan></text><path stroke="#009E73" d="M446.1 446h42.2M62.2 384.2l5.6-.1h5.6l5.6-91 5.5.2 5.6 90.9 5.6.4 5.6-113.6 5.6 113.4 5.6-184.7 5.5 93.8 5.6 90.8 5.6.2 5.6-.1h5.6l5.6-.1 5.5-.3 5.6.2 5.6.1 5.6-181.8 5.6 181.7 5.6-.6 5.5-.2 5.6-113.1 5.6 114.1 5.6.3 5.6-.1 5.6-.2 5.5-.2h5.6l5.6-184.2 5.6 1.4 5.6 183.4 5.6-91.7 5.6-92 5.5-.8 5.6 184.1h5.6l5.6-.6 5.6.1 5.6-183.9 5.5 184.1 5.6-182.3 5.6 182.5 5.6-.2 5.6-90.5 5.6 90.7 5.5-115.8 5.6 115.9 5.6-182.8 5.6-.6 5.6 183.5 5.6-.3 5.5.1 5.6-181.5 5.6 67.9 5.6 22.9 5.6-91.3 5.6 181.8 5.5.4 5.6.1 5.6-.3 5.6-.4 5.6-183.6 5.6 184 5.5-182.5 5.6-.1 5.6 182.3 5.6-184.4 5.6 184.8 5.6.1 5.6-.2 5.5-.1 5.6.6 5.6-182.5L481 384l5.6-181.9 5.6 182.5 5.5-91.3 5.6-.2 5.6 90.8 5.6.6 5.6.2 5.6-.4 5.5-.4 5.6.1 5.6-181.7 5.6 182.1 5.6.1 5.6-183.9 5.5 183.6 5.6-.2h11.2l5.6-114.6 5.6 115.1 5.5-91.3 5.6 91.4 5.6-.4 5.6-.2" fill="none" color="#000"/><text transform="translate(437.8 467.9)" stroke="none" fill="#000" font-family="Arial" font-size="12" text-anchor="end" color="#000"><tspan>score p10=3387</tspan></text><path stroke="#56B4E9" d="M446.1 464h42.2" fill="none" color="#000"/><g><text transform="translate(437.8 485.9)" stroke="none" fill="#000" font-family="Arial" font-size="12" text-anchor="end" color="#000"><tspan>score median=5800</tspan></text><path stroke="#E69F00" d="M446.1 482h42.2" fill="none" color="#000"/></g><g fill="none" color="#000" stroke="currentColor"><path stroke="#000" d="M62.2 18.1V392H615V18.1H62.2z"/></g></svg>

<?xml version="1.0" encoding="utf-8"  standalone="no"?>
<svg 
 width="640" height="500"
 viewBox="0 0 640 500"
 xmlns="http://www.w3.org/2000/svg"
 xmlns:xlink="http://www.w3.org/1999/xlink"
>

<title>Gnuplot</title>
<desc>Produced by GNUPLOT 5.4 patchlevel 0 </desc>

<g id="gnuplot_canvas">

<rect x="0" y="0" width="640" height="500" fill="#ffffff"/>
<defs>

	<circle id='gpDot' r='0.5' stroke-width='0.5' stroke='currentColor'/>
	<path id='gpPt0' stroke-width='0.222' stroke='currentColor' d='M-1,0 h2 M0,-1 v2'/>
	<path id='gpPt1' stroke-width='0.222' stroke='currentColor' d='M-1,-1 L1,1 M1,-1 L-1,1'/>
	<path id='gpPt2' stroke-width='0.222' stroke='currentColor' d='M-1,0 L1,0 M0,-1 L0,1 M-1,-1 L1,1 M-1,1 L1,-1'/>
	<rect id='gpPt3' stroke-width='0.222' stroke='currentColor' x='-1' y='-1' width='2' height='2'/>
	<rect id='gpPt4' stroke-width='0.222' stroke='currentColor' fill='currentColor' x='-1' y='-1' width='2' height='2'/>
	<circle id='gpPt5' stroke-width='0.222' stroke='currentColor' cx='0' cy='0' r='1'/>
	<use xlink:href='#gpPt5' id='gpPt6' fill='currentColor' stroke='none'/>
	<path id='gpPt7' stroke-width='0.222' stroke='currentColor' d='M0,-1.33 L-1.33,0.67 L1.33,0.67 z'/>
	<use xlink:href='#gpPt7' id='gpPt8' fill='currentColor' stroke='none'/>
	<use xlink:href='#gpPt7' id='gpPt9' stroke='currentColor' transform='rotate(180)'/>
	<use xlink:href='#gpPt9' id='gpPt10' fill='currentColor' stroke='none'/>
	<use xlink:href='#gpPt3' id='gpPt11' stroke='currentColor' transform='rotate(45)'/>
	<use xlink:href='#gpPt11' id='gpPt12' fill='currentColor' stroke='none'/>
	<path id='gpPt13' stroke-width='0.222' stroke='currentColor' d='M0,1.330 L1.265,0.411 L0.782,-1.067 L-0.782,-1.076 L-1.265,0.411 z'/>
	<use xlink:href='#gpPt13' id='gpPt14' fill='currentColor' stroke='none'/>
	<filter id='textbox' filterUnits='objectBoundingBox' x='0' y='0' height='1' width='1'>
	  <feFlood flood-color='#FFFFFF' flood-opacity='1' result='bgnd'/>
	  <feComposite in='SourceGraphic' in2='bgnd' operator='atop'/>
	</filter>
	<filter id='greybox' filterUnits='objectBoundingBox' x='0' y='0' height='1' width='1'>
	  <feFlood flood-color='lightgrey' flood-opacity='1' result='grey'/>
	  <feComposite in='SourceGraphic' in2='grey' operator='atop'/>
	</filter>
</defs>
<g fill="none" color="#FFFFFF" stroke="black" stroke-width="1.00" stroke-linecap="butt" stroke-linejoin="miter">
</g>
<g fill="none" color="black" stroke="currentColor" stroke-width="1.00" stroke-linecap="butt" stroke-linejoin="miter">
	<path stroke='black'  d='M62.2,357.9 L71.2,357.9 M615.0,357.9 L606.0,357.9  '/>	<g transform="translate(53.9,361.8)" stroke="none" fill="black" font-family="Arial" font-size="12.00"  text-anchor="end">
		<text><tspan font-family="Arial" > 1600</tspan></text>
	</g>
</g>
<g fill="none" color="black" stroke="currentColor" stroke-width="1.00" stroke-linecap="butt" stroke-linejoin="miter">
	<path stroke='black'  d='M62.2,297.9 L71.2,297.9 M615.0,297.9 L606.0,297.9  '/>	<g transform="translate(53.9,301.8)" stroke="none" fill="black" font-family="Arial" font-size="12.00"  text-anchor="end">
		<text><tspan font-family="Arial" > 1800</tspan></text>
	</g>
</g>
<g fill="none" color="black" stroke="currentColor" stroke-width="1.00" stroke-linecap="butt" stroke-linejoin="miter">
	<path stroke='black'  d='M62.2,237.9 L71.2,237.9 M615.0,237.9 L606.0,237.9  '/>	<g transform="translate(53.9,241.8)" stroke="none" fill="black" font-family="Arial" font-size="12.00"  text-anchor="end">
		<text><tspan font-family="Arial" > 2000</tspan></text>
	</g>
</g>
<g fill="none" color="black" stroke="currentColor" stroke-width="1.00" stroke-linecap="butt" stroke-linejoin="miter">
	<path stroke='black'  d='M62.2,177.9 L71.2,177.9 M615.0,177.9 L606.0,177.9  '/>	<g transform="translate(53.9,181.8)" stroke="none" fill="black" font-family="Arial" font-size="12.00"  text-anchor="end">
		<text><tspan font-family="Arial" > 2200</tspan></text>
	</g>
</g>
<g fill="none" color="black" stroke="currentColor" stroke-width="1.00" stroke-linecap="butt" stroke-linejoin="miter">
	<path stroke='black'  d='M62.2,117.9 L71.2,117.9 M615.0,117.9 L606.0,117.9  '/>	<g transform="translate(53.9,121.8)" stroke="none" fill="black" font-family="Arial" font-size="12.00"  text-anchor="end">
		<text><tspan font-family="Arial" > 2400</tspan></text>
	</g>
</g>
<g fill="none" color="black" stroke="currentColor" stroke-width="1.00" stroke-linecap="butt" stroke-linejoin="miter">
	<path stroke='black'  d='M62.2,57.9 L71.2,57.9 M615.0,57.9 L606.0,57.9  '/>	<g transform="translate(53.9,61.8)" stroke="none" fill="black" font-family="Arial" font-size="12.00"  text-anchor="end">
		<text><tspan font-family="Arial" > 2600</tspan></text>
	</g>
</g>
<g fill="none" color="black" stroke="currentColor" stroke-width="1.00" stroke-linecap="butt" stroke-linejoin="miter">
	<path stroke='black'  d='M62.2,392.0 L62.2,383.0 M62.2,18.1 L62.2,27.1  '/>	<g transform="translate(62.2,413.9)" stroke="none" fill="black" font-family="Arial" font-size="12.00"  text-anchor="middle">
		<text><tspan font-family="Arial" > 0</tspan></text>
	</g>
</g>
<g fill="none" color="black" stroke="currentColor" stroke-width="1.00" stroke-linecap="butt" stroke-linejoin="miter">
	<path stroke='black'  d='M118.0,392.0 L118.0,383.0 M118.0,18.1 L118.0,27.1  '/>	<g transform="translate(118.0,413.9)" stroke="none" fill="black" font-family="Arial" font-size="12.00"  text-anchor="middle">
		<text><tspan font-family="Arial" > 10</tspan></text>
	</g>
</g>
<g fill="none" color="black" stroke="currentColor" stroke-width="1.00" stroke-linecap="butt" stroke-linejoin="miter">
	<path stroke='black'  d='M173.9,392.0 L173.9,383.0 M173.9,18.1 L173.9,27.1  '/>	<g transform="translate(173.9,413.9)" stroke="none" fill="black" font-family="Arial" font-size="12.00"  text-anchor="middle">
		<text><tspan font-family="Arial" > 20</tspan></text>
	</g>
</g>
<g fill="none" color="black" stroke="currentColor" stroke-width="1.00" stroke-linecap="butt" stroke-linejoin="miter">
	<path stroke='black'  d='M229.7,392.0 L229.7,383.0 M229.7,18.1 L229.7,27.1  '/>	<g transform="translate(229.7,413.9)" stroke="none" fill="black" font-family="Arial" font-size="12.00"  text-anchor="middle">
		<text><tspan font-family="Arial" > 30</tspan></text>
	</g>
</g>
<g fill="none" color="black" stroke="currentColor" stroke-width="1.00" stroke-linecap="butt" stroke-linejoin="miter">
	<path stroke='black'  d='M285.6,392.0 L285.6,383.0 M285.6,18.1 L285.6,27.1  '/>	<g transform="translate(285.6,413.9)" stroke="none" fill="black" font-family="Arial" font-size="12.00"  text-anchor="middle">
		<text><tspan font-family="Arial" > 40</tspan></text>
	</g>
</g>
<g fill="none" color="black" stroke="currentColor" stroke-width="1.00" stroke-linecap="butt" stroke-linejoin="miter">
	<path stroke='black'  d='M341.4,392.0 L341.4,383.0 M341.4,18.1 L341.4,27.1  '/>	<g transform="translate(341.4,413.9)" stroke="none" fill="black" font-family="Arial" font-size="12.00"  text-anchor="middle">
		<text><tspan font-family="Arial" > 50</tspan></text>
	</g>
</g>
<g fill="none" color="black" stroke="currentColor" stroke-width="1.00" stroke-linecap="butt" stroke-linejoin="miter">
	<path stroke='black'  d='M397.2,392.0 L397.2,383.0 M397.2,18.1 L397.2,27.1  '/>	<g transform="translate(397.2,413.9)" stroke="none" fill="black" font-family="Arial" font-size="12.00"  text-anchor="middle">
		<text><tspan font-family="Arial" > 60</tspan></text>
	</g>
</g>
<g fill="none" color="black" stroke="currentColor" stroke-width="1.00" stroke-linecap="butt" stroke-linejoin="miter">
	<path stroke='black'  d='M453.1,392.0 L453.1,383.0 M453.1,18.1 L453.1,27.1  '/>	<g transform="translate(453.1,413.9)" stroke="none" fill="black" font-family="Arial" font-size="12.00"  text-anchor="middle">
		<text><tspan font-family="Arial" > 70</tspan></text>
	</g>
</g>
<g fill="none" color="black" stroke="currentColor" stroke-width="1.00" stroke-linecap="butt" stroke-linejoin="miter">
	<path stroke='black'  d='M508.9,392.0 L508.9,383.0 M508.9,18.1 L508.9,27.1  '/>	<g transform="translate(508.9,413.9)" stroke="none" fill="black" font-family="Arial" font-size="12.00"  text-anchor="middle">
		<text><tspan font-family="Arial" > 80</tspan></text>
	</g>
</g>
<g fill="none" color="black" stroke="currentColor" stroke-width="1.00" stroke-linecap="butt" stroke-linejoin="miter">
	<path stroke='black'  d='M564.7,392.0 L564.7,383.0 M564.7,18.1 L564.7,27.1  '/>	<g transform="translate(564.7,413.9)" stroke="none" fill="black" font-family="Arial" font-size="12.00"  text-anchor="middle">
		<text><tspan font-family="Arial" > 90</tspan></text>
	</g>
</g>
<g fill="none" color="black" stroke="currentColor" stroke-width="1.00" stroke-linecap="butt" stroke-linejoin="miter">
</g>
<g fill="none" color="black" stroke="currentColor" stroke-width="1.00" stroke-linecap="butt" stroke-linejoin="miter">
	<path stroke='black'  d='M62.2,18.1 L62.2,392.0 L615.0,392.0 L615.0,18.1 L62.2,18.1 Z  '/></g>
<g fill="none" color="black" stroke="currentColor" stroke-width="1.00" stroke-linecap="butt" stroke-linejoin="miter">
</g>
	<g id="gnuplot_plot_1" ><title>pages+cached+noexternal</title>
<g fill="none" color="black" stroke="currentColor" stroke-width="1.00" stroke-linecap="butt" stroke-linejoin="miter">
	<g transform="translate(437.8,431.9)" stroke="none" fill="black" font-family="Arial" font-size="12.00"  text-anchor="end">
		<text><tspan font-family="Arial" >pages+cached+noexternal</tspan></text>
	</g>
</g>
<g fill="none" color="black" stroke="currentColor" stroke-width="1.00" stroke-linecap="butt" stroke-linejoin="miter">
	<path stroke='rgb(148,   0, 211)'  d='M446.1,428.0 L488.3,428.0 M62.2,71.1 L67.8,72.1 L73.4,71.8 L79.0,33.7 L84.5,71.3 L90.1,69.1
		L95.7,68.7 L101.3,77.1 L106.9,40.1 L112.5,38.3 L118.0,34.4 L123.6,38.6 L129.2,35.8 L134.8,34.7
		L140.4,59.6 L146.0,35.2 L151.5,33.3 L157.1,34.0 L162.7,42.0 L168.3,34.3 L173.9,33.3 L179.5,68.2
		L185.0,70.6 L190.6,66.3 L196.2,70.8 L201.8,66.8 L207.4,70.3 L213.0,43.5 L218.5,33.0 L224.1,32.7
		L229.7,69.2 L235.3,34.3 L240.9,70.6 L246.5,60.7 L252.1,38.7 L257.6,68.8 L263.2,76.3 L268.8,58.5
		L274.4,35.6 L280.0,40.8 L285.6,32.6 L291.1,74.0 L296.7,32.3 L302.3,64.8 L307.9,65.7 L313.5,73.3
		L319.1,40.2 L324.6,64.8 L330.2,31.9 L335.8,62.0 L341.4,36.1 L347.0,35.8 L352.6,25.3 L358.1,40.8
		L363.7,67.9 L369.3,66.2 L374.9,71.3 L380.5,34.1 L386.1,37.8 L391.6,40.3 L397.2,64.7 L402.8,36.8
		L408.4,34.8 L414.0,28.3 L419.6,36.5 L425.1,39.0 L430.7,62.8 L436.3,33.5 L441.9,36.2 L447.5,76.8
		L453.1,72.6 L458.7,76.2 L464.2,75.8 L469.8,27.5 L475.4,68.1 L481.0,41.1 L486.6,69.3 L492.2,29.8
		L497.7,63.8 L503.3,37.2 L508.9,73.6 L514.5,35.1 L520.1,30.8 L525.7,69.4 L531.2,69.1 L536.8,39.8
		L542.4,37.2 L548.0,36.9 L553.6,31.0 L559.2,57.3 L564.7,33.9 L570.3,68.6 L575.9,34.5 L581.5,39.0
		L587.1,35.2 L592.7,34.4 L598.2,72.6 L603.8,42.6 L609.4,35.2 L615.0,71.2  '/></g>
	</g>
	<g id="gnuplot_plot_2" ><title>pages+cached+noexternal+nofonts</title>
<g fill="none" color="black" stroke="currentColor" stroke-width="1.00" stroke-linecap="butt" stroke-linejoin="miter">
	<g transform="translate(437.8,449.9)" stroke="none" fill="black" font-family="Arial" font-size="12.00"  text-anchor="end">
		<text><tspan font-family="Arial" >pages+cached+noexternal+nofonts</tspan></text>
	</g>
</g>
<g fill="none" color="black" stroke="currentColor" stroke-width="1.00" stroke-linecap="butt" stroke-linejoin="miter">
	<path stroke='rgb(  0, 158, 115)'  d='M446.1,446.0 L488.3,446.0 M62.2,384.2 L67.8,384.1 L73.4,384.1 L79.0,293.1 L84.5,293.3 L90.1,384.2
		L95.7,384.6 L101.3,271.0 L106.9,384.4 L112.5,199.7 L118.0,293.5 L123.6,384.3 L129.2,384.5 L134.8,384.4
		L140.4,384.4 L146.0,384.3 L151.5,384.0 L157.1,384.2 L162.7,384.3 L168.3,202.5 L173.9,384.2 L179.5,383.6
		L185.0,383.4 L190.6,270.3 L196.2,384.4 L201.8,384.7 L207.4,384.6 L213.0,384.4 L218.5,384.2 L224.1,384.2
		L229.7,200.0 L235.3,201.4 L240.9,384.8 L246.5,293.1 L252.1,201.1 L257.6,200.3 L263.2,384.4 L268.8,384.4
		L274.4,383.8 L280.0,383.9 L285.6,200.0 L291.1,384.1 L296.7,201.8 L302.3,384.3 L307.9,384.1 L313.5,293.6
		L319.1,384.3 L324.6,268.5 L330.2,384.4 L335.8,201.6 L341.4,201.0 L347.0,384.5 L352.6,384.2 L358.1,384.3
		L363.7,202.8 L369.3,270.7 L374.9,293.6 L380.5,202.3 L386.1,384.1 L391.6,384.5 L397.2,384.6 L402.8,384.3
		L408.4,383.9 L414.0,200.3 L419.6,384.3 L425.1,201.8 L430.7,201.7 L436.3,384.0 L441.9,199.6 L447.5,384.4
		L453.1,384.5 L458.7,384.3 L464.2,384.2 L469.8,384.8 L475.4,202.3 L481.0,384.0 L486.6,202.1 L492.2,384.6
		L497.7,293.3 L503.3,293.1 L508.9,383.9 L514.5,384.5 L520.1,384.7 L525.7,384.3 L531.2,383.9 L536.8,384.0
		L542.4,202.3 L548.0,384.4 L553.6,384.5 L559.2,200.6 L564.7,384.2 L570.3,384.0 L575.9,384.0 L581.5,384.0
		L587.1,269.4 L592.7,384.5 L598.2,293.2 L603.8,384.6 L609.4,384.2 L615.0,384.0  '/></g>
	</g>
	<g id="gnuplot_plot_3" ><title>score p10=3387</title>
<g fill="none" color="black" stroke="currentColor" stroke-width="1.00" stroke-linecap="butt" stroke-linejoin="miter">
	<g transform="translate(437.8,467.9)" stroke="none" fill="black" font-family="Arial" font-size="12.00"  text-anchor="end">
		<text><tspan font-family="Arial" >score p10=3387</tspan></text>
	</g>
</g>
<g fill="none" color="black" stroke="currentColor" stroke-width="1.00" stroke-linecap="butt" stroke-linejoin="miter">
	<path stroke='rgb( 86, 180, 233)'  d='M446.1,464.0 L488.3,464.0  '/></g>
	</g>
	<g id="gnuplot_plot_4" ><title>score median=5800</title>
<g fill="none" color="black" stroke="currentColor" stroke-width="1.00" stroke-linecap="butt" stroke-linejoin="miter">
	<g transform="translate(437.8,485.9)" stroke="none" fill="black" font-family="Arial" font-size="12.00"  text-anchor="end">
		<text><tspan font-family="Arial" >score median=5800</tspan></text>
	</g>
</g>
<g fill="none" color="black" stroke="currentColor" stroke-width="1.00" stroke-linecap="butt" stroke-linejoin="miter">
	<path stroke='rgb(230, 159,   0)'  d='M446.1,482.0 L488.3,482.0  '/></g>
	</g>
<g fill="none" color="#FFFFFF" stroke="rgb(230, 159,   0)" stroke-width="2.00" stroke-linecap="butt" stroke-linejoin="miter">
</g>
<g fill="none" color="black" stroke="currentColor" stroke-width="2.00" stroke-linecap="butt" stroke-linejoin="miter">
</g>
<g fill="none" color="black" stroke="black" stroke-width="1.00" stroke-linecap="butt" stroke-linejoin="miter">
</g>
<g fill="none" color="black" stroke="currentColor" stroke-width="1.00" stroke-linecap="butt" stroke-linejoin="miter">
	<path stroke='black'  d='M62.2,18.1 L62.2,392.0 L615.0,392.0 L615.0,18.1 L62.2,18.1 Z  '/></g>
<g fill="none" color="black" stroke="currentColor" stroke-width="1.00" stroke-linecap="butt" stroke-linejoin="miter">
</g>
</g>
</svg>
